Sources/FrostedUI/Resources/Icons.xcassets/bitcoin32.imageset/bitcoin-32.svg

<svg width="32" height="32" viewBox="0 0 32 32" fill="none" xmlns="http://www.w3.org/2000/svg" data-fui-icon="true">
  <path
    d="M16 1C24.2843 1 31 7.71573 31 16C31 24.2843 24.2843 31 16 31C7.71573 31 1 24.2843 1 16C1 7.71573 7.71573 1 16 1ZM16 2.5C8.54416 2.5 2.5 8.54416 2.5 16C2.5 23.4558 8.54416 29.5 16 29.5C23.4558 29.5 29.5 23.4558 29.5 16C29.5 8.54416 23.4558 2.5 16 2.5ZM18.75 6.25C19.1642 6.25 19.5 6.58579 19.5 7V8.78125C21.4731 9.02732 23 10.7102 23 12.75C23 14.0894 22.3409 15.274 21.3301 16C22.3409 16.726 23 17.9106 23 19.25C23 21.2898 21.4731 22.9717 19.5 23.2178V25C19.5 25.4142 19.1642 25.75 18.75 25.75C18.3358 25.75 18 25.4142 18 25V23.25H14V25C14 25.4142 13.6642 25.75 13.25 25.75C12.8358 25.75 12.5 25.4142 12.5 25V23.25H9.75C9.33579 23.25 9 22.9142 9 22.5C9 22.0858 9.33579 21.75 9.75 21.75H11.0381L11.002 10.25H9.75C9.33579 10.25 9 9.91421 9 9.5C9 9.08579 9.33579 8.75 9.75 8.75H12.5V7C12.5 6.58579 12.8358 6.25 13.25 6.25C13.6642 6.25 14 6.58579 14 7V8.75H18V7C18 6.58579 18.3358 6.25 18.75 6.25ZM12.5371 21.75H19C20.3807 21.75 21.5 20.6307 21.5 19.25C21.5 17.8693 20.3807 16.75 19 16.75H12.5215L12.5371 21.75ZM12.5176 15.25H19C20.3807 15.25 21.5 14.1307 21.5 12.75C21.5 11.3693 20.3807 10.25 19 10.25H12.502L12.5176 15.25Z"
    fill="currentColor"
  />
</svg>

<svg xmlns="http://www.w3.org/2000/svg" width="32" height="32" fill="none" data-fui-icon="true" viewBox="0 0 32 32"><path fill="currentColor" d="M16 1c8.284 0 15 6.716 15 15s-6.716 15-15 15S1 24.284 1 16 7.716 1 16 1m0 1.5C8.544 2.5 2.5 8.544 2.5 16S8.544 29.5 16 29.5 29.5 23.456 29.5 16 23.456 2.5 16 2.5m2.75 3.75a.75.75 0 0 1 .75.75v1.781A4 4 0 0 1 21.33 16a4 4 0 0 1-1.83 7.218V25a.75.75 0 0 1-1.5 0v-1.75h-4V25a.75.75 0 0 1-1.5 0v-1.75H9.75a.75.75 0 0 1 0-1.5h1.288l-.036-11.5H9.75a.75.75 0 0 1 0-1.5h2.75V7A.75.75 0 0 1 14 7v1.75h4V7a.75.75 0 0 1 .75-.75m-6.213 15.5H19a2.5 2.5 0 0 0 0-5h-6.478zm-.02-6.5H19a2.5 2.5 0 0 0 0-5h-6.498z"/></svg>
